X:1
T:If Christ Should Come Tonight
T:If Christ Should Come Tonight
T:J. Howard Entwisle
T:Harriet E. Jones, 1897
T:Public Domain Courtesy of the Cyber Hymnal™
T:Public Domain Courtesy of the Cyber Hymnal™
C:J. Howard Entwisle
Z:Public Domain
Z:Courtesy of the Cyber Hymnal™
%%score ( 1 2 ) ( 3 4 )
L:1/8
Q:1/4=115
M:4/4
K:E
V:1 treble 
V:2 treble 
V:3 bass 
V:4 bass 
V:1
 B,[B,E] | [EG]3 [EG] [EA]2 [EA]2 | [EG]6 E[EG] | [EB]3 [EB] [Ec]2 [Ec]2 | [EB]6 [EG][GB] | %5
w: 1.~If our|Lord should come to-|night, With the|bright an- gel- ic|host, Would He|
w: 2.~If our|Lord should come to-|night, Come as|King and Judge of|all, Are there|
w: 3.~Christ as|King and Judge will|come, ’Tis re-|cord- ed in His|book; He will|
 [Ge]3 [GB] [Bd]2 [Ac]2 | [GB]2 [EG]2 E2 [DF]2 | [EG]3 [GB] [FA]2 [EG]2 | [DF]6 B,>B, | %9
w: find us in His|vine- yard, Ev- ery|ser- vant at his|post? Thro’ the|
w: a- ny here as-|sem- bled Who would|trem- ble at His|call? Is there|
w: bid us stand be-|fore Him, Not a|soul will He o’er-|look! Are we|
 [B,E]3 [B,E] .[=DE]2 .[CE]2 | .[B,E]6 [B,E]>[DF] | [EG]3 [EG] [FG]2 [FG]2 | [EG]6 [EG]>[EG] | %13
w: pre- cious cleans- ing|blood, Are our|gar- ments clean and|white? Are we|
w: one, oh, is there|one Far from|Je- sus and the|light, Un- re-|
w: rea- dy, ev- ery|one? Are we|in the rai- ment|white, If the|
 [E^A]3 [EA] [EG]2 [EF]2 | (F4 B2) [Fc][Fd] | [Ge]3 [Gc] [EG]2 [E^A]2 | !fermata!B6 || %17
w: dwell- ing in the|light, * Should our|Lord ap- pear to-|night?|
w: pent- ant, lost, un-|done, * If the|Judge should come to-|night?|
w: Judge of all man-|kind * Should ap-|pear this ve- ry|night?|
"^Refrain" [AB]>[AB] | [Ge]4 [Bd]2 [Ac]>[GB] | [Ac]4 [GB]2 [FA]>[EG] | [DF]3 [EG] [FA]2 [DB]2 | %21
w: Are we|watch- ing, are we|wait- ing In the|rai- ment pure and|
w: ||||
w: ||||
 [EG]6 [GB]>[GB] | [Ge]3 [Bd] [Ac]2 [GB]2 | [Ac]2 !fermata![Ee]4 [Ed]>[Ec] | [EB]3 E [EG]3 [DF] | %25
w: white? Should we|joy at His ap-|pear- ing If our|Lord should come to-|
w: ||||
w: ||||
 !fermata!E8 |] %26
w: night?|
w: |
w: |
V:2
 B, x | x8 | x6 E x | x8 | x8 | x8 | x4 E2 x2 | x8 | x6 B,>B, | x8 | x8 | x8 | x8 | x8 | F6 x2 | %15
 x8 | (D2 E2 F2) || x2 | x8 | x8 | x8 | x8 | x8 | x8 | x3 E x4 | (E2 C2 B,2) x2 |] %26
V:3
 [E,G,][E,G,] | [E,B,]3 [E,B,] [E,C]2 [E,=C]2 | [E,B,]6 [E,G,][E,B,] | %3
w: ~ ~|~ ~ ~ ~|~ ~ ~|
 [E,G,]3 [E,G,] [A,,A,]2 [C,A,]2 | [E,G,]6 [E,B,][E,E] | [E,B,]3 [E,E] [E,E]2 [E,E]2 | %6
w: ~ ~ ~ ~|~ ~ ~|~ ~ ~ ~|
 [E,E]2 [E,B,]2 [E,G,]2 [B,,B,]2 | [E,B,]3 [E,B,] [D,B,]2 [E,B,]2 | [B,,B,]6 [B,,A,]>[B,,A,] | %9
w: ~ ~ ~ ~|~ ~ ~ ~|~ ~ ~|
 [E,G,]3 [E,G,] .[E,B,]2 .[E,A,]2 | .[E,G,]6 [G,,B,]>[B,,B,] | [E,B,]3 [E,B,] [D,^B,]2 [G,,B,]2 | %12
w: ~ ~ ~ ~|~ ~ ~|~ ~ ~ ~|
 [C,C]6 [C,C]>[C,C] | [F,C]3 [F,C] [F,B,]2 ^A,2 | [D,B,]6 [C,^A,][B,,B,] | %15
w: ~ ~ ~|~ ~ ~ ~|~ ~ ~|
 [E,B,]3 [E,E] [E,C]2 (CF,) | (F,2 G,2 A,2) || [B,D]>[B,D] | [E,B,]2 [E,B,]2 [E,E]2 [E,E]2 | %19
w: ~ ~ ~ ~ *|~ * *|~ ~|~ watch- ing, watch-|
 [E,E]2 [E,E]2 [E,E]2 [E,B,]2 | [B,,B,]2 [B,,B,]2 [B,,B,]2 [B,,B,]2 | %21
w: ing, wait- ing, wait-|ing, In the rai-|
 [E,B,]2 [E,B,]2 [E,B,]2 [E,E]>[E,F] | [E,B,]3 [E,E] [E,E]2 [E,E]2 | %23
w: ment pure and white? ~|~ ~ ~ ~|
 [A,E]2 !fermata![A,C]4 [A,,B,]>[A,,A,] | [B,,G,]3 [B,,G,] [B,,B,]3 [B,,A,] | G,2 A,2 G,2 x2 |] %26
w: ~ ~ ~ ~|~ ~ ~ ~|~ to- night?|
V:4
 x2 | x8 | x8 | x8 | x8 | x8 | x8 | x8 | x8 | x8 | x8 | x8 | x8 | x6 (F,E,) | x8 | x6 F,2 | B,,6 || %17
 x2 | x8 | x8 | x8 | x8 | x8 | x8 | x8 | E,8 |] %26

